packages/core/src/svgs/wing.svg

<svg width="24" height="24" viewBox="0 0 24 24" fill="none" xmlns="http://www.w3.org/2000/svg">
<g clip-path="url(#clip0_31_20720)">
<path d="M0 0H24V24H0V0Z" fill="url(#paint0_linear_31_20720)"/>
<path d="M14.2449 11.1708L12.9781 13.4486L11.7108 15.7269L10.4422 18.0001L9.17493 15.7239L10.4418 13.4456L11.7104 11.1695L9.78607 7.71436H12.3198L12.9781 8.89421L14.2449 11.1708ZM7.25021 7.71436H4.71436L7.90636 13.4469L9.17493 11.1708L7.25021 7.71436ZM18.0189 8.89421L17.3611 7.71436H14.8269L16.7521 11.1708L15.4831 13.4486L14.2162 15.7269L15.4831 18.0001L16.7516 15.7239L18.0189 13.4456L19.2858 11.1695L18.0189 8.89421Z" fill="white"/>
</g>
<defs>
<linearGradient id="paint0_linear_31_20720" x1="4.46486" y1="4.16229" x2="29.2059" y2="32.5787" gradientUnits="userSpaceOnUse">
<stop stop-color="#1A1E21"/>
<stop offset="1" stop-color="#06060A"/>
</linearGradient>
<clipPath id="clip0_31_20720">
<rect width="24" height="24" fill="white"/>
</clipPath>
</defs>
</svg>

<svg xmlns="http://www.w3.org/2000/svg" width="24" height="24" fill="none" viewBox="0 0 24 24"><g clip-path="url(#a)"><path fill="url(#b)" d="M0 0h24v24H0z"/><path fill="#fff" d="m14.245 11.17-1.267 2.279-1.267 2.278L10.442 18l-1.267-2.276 1.267-2.278 1.268-2.277-1.924-3.455h2.534l.658 1.18zM7.25 7.715H4.714l3.192 5.733 1.269-2.276zm10.769 1.18-.658-1.18h-2.534l1.925 3.457-1.269 2.278-1.267 2.278L15.483 18l1.269-2.276 1.267-2.278 1.267-2.277z"/></g><defs><linearGradient id="b" x1="4.465" x2="29.206" y1="4.162" y2="32.579" gradientUnits="userSpaceOnUse"><stop stop-color="#1A1E21"/><stop offset="1" stop-color="#06060A"/></linearGradient><clipPath id="a"><path fill="#fff" d="M0 0h24v24H0z"/></clipPath></defs></svg>
